X: 1
K: C
M: 4/4
L: 1/4
E3 G | G4 | E3 D | C4 | D2 E2 | G3 E | D4 | -D4 |
E3 G | G4 | E3 D | C4 | D2 E2 | D3 C | C4 | -C4 |]
